X: 2501
T: Ballydesmond, The
R: polka
M: 2/4
K: Adorian
|:B/|c2 B2|A2 G>A|Bd ed|g2 ed|
ea g>e|dB G>B|ce dB|A2 A3/2:|
|:d/|ea a2|dg g2|ea af|g2 ed|
ea g>e|dB G2|ce dB|A2- A3/2:|

